frontend/public/svg/interface/sync.svg

<svg width="179" height="151" viewBox="0 0 179 151" fill="none" xmlns="http://www.w3.org/2000/svg">
<g clip-path="url(#clip0)">
<path d="M150.623 103.636C148.858 103.225 146.502 103.451 145.306 106.835C143.604 111.644 140.529 115.536 137.746 118.709C129.821 127.745 119.481 134.093 107.019 137.576C97.6028 140.207 86.4064 142.551 74.7526 139.977C57.3729 136.137 43.2279 126.557 32.7116 111.499C28.0394 104.808 25.3576 98.4163 24.5131 91.9506C23.0129 80.9426 23.5155 69.7536 25.9964 58.9252C26.6187 56.2632 27.4517 53.5879 28.3417 50.7319C28.4747 50.3071 28.6088 49.8765 28.7439 49.44C29.3377 50.5601 29.8483 51.4998 30.4226 52.4416L30.5691 52.6794C31.6685 54.5713 32.894 56.3867 34.238 58.1129C36.1174 60.4195 38.8158 61.116 40.9551 59.8468C42.6441 58.8432 43.9679 56.448 42.1249 53.0003C40.0396 49.1023 37.2479 43.9922 34.1472 39.0294C31.8455 35.3442 28.9669 34.3466 24.8144 35.7973C17.8114 38.2446 11.0957 40.874 5.44972 43.1208C3.84767 43.7529 2.46897 44.8481 1.48974 46.267C0.658856 47.5688 0.824715 49.7167 1.45421 50.9534C2.30264 52.6274 4.13638 53.0919 6.36073 52.197C10.7231 50.4396 15.1553 48.7847 19.6891 47.1042C20.3621 46.8542 21.0836 46.6486 21.8073 46.4533C17.8666 55.5888 15.6889 65.892 15.1575 77.8952C14.526 92.1361 16.6833 102.696 22.1493 112.134C31.6008 128.45 45.6482 140.213 63.9023 147.096C69.345 149.134 75.0676 150.324 80.8702 150.628C82.3462 150.71 83.8475 150.751 85.3325 150.751C93.9006 150.706 102.417 149.416 110.615 146.922C124.527 142.821 135.611 136.141 144.5 126.489C148.832 121.787 151.581 117.339 153.149 112.489C153.606 111.221 153.879 109.894 153.962 108.549C154.048 105.143 152.195 103.997 150.623 103.636Z" fill="black"/>
<path d="M177.792 69.6636C176.872 68.453 175.276 67.9323 173.413 68.2349C171.382 68.5604 169.467 69.8738 168.216 70.9165C166.111 72.6738 164.098 74.5665 161.967 76.5679L161.895 76.6337C161.741 76.7788 161.585 76.9233 161.429 77.0704C162.249 70.0606 162.18 62.9755 161.226 55.9828C159.312 41.5989 152.548 28.3021 142.057 18.2977C131.583 8.35446 118.029 2.27283 102.858 0.708808C87.2457 -0.89752 71.5953 1.70918 56.3439 8.46511C51.5366 10.596 45.9876 13.378 41.3154 17.8559C40.0522 19.1485 39.0501 20.6734 38.3642 22.3468C37.8646 23.4826 38.512 25.7965 39.7567 26.368C40.3876 26.5925 41.06 26.6758 41.7265 26.6124C42.393 26.5489 43.0377 26.3404 43.6152 26.0009C44.3559 25.5452 45.0484 25.0154 45.6827 24.4198C46.1211 24.014 46.5877 23.6394 47.0784 23.2989C66.3073 10.7223 86.8228 6.45397 108.052 10.6071C121.053 13.1539 131.664 19.4434 139.587 29.2994C148.726 40.666 152.958 54.1844 152.168 69.4787C151.972 72.2859 151.63 75.0814 151.144 77.8527C151.044 78.4906 150.945 79.1284 150.847 79.7669C150.05 78.8765 149.231 77.9569 148.458 77.0196C146.787 74.9889 145.124 72.9498 143.47 70.9015L143.37 70.7779C142.189 69.3206 141.007 67.8633 139.8 66.3865C139.28 65.7076 138.694 65.0819 138.05 64.5194C136.334 63.1044 134.342 63.0029 132.723 64.2473C131.965 64.8024 131.438 65.6185 131.244 66.5388C131.05 67.4591 131.202 68.4185 131.67 69.2334C132.309 70.4915 133.059 71.6897 133.911 72.8131C138.747 79.0438 143.495 85.0767 147.503 90.156C149.192 92.296 150.781 93.2508 152.656 93.2508C153.962 93.1942 155.238 92.8356 156.382 92.2023C163.569 88.549 170.083 83.6975 175.645 77.856C176.612 76.8758 177.406 75.7381 177.993 74.4923C178.821 72.6797 178.747 70.9165 177.792 69.6636Z" fill="black"/>
</g>
<defs>
<clipPath id="clip0">
<rect width="178" height="151" fill="white" transform="translate(0.777344)"/>
</clipPath>
</defs>
</svg>

<svg xmlns="http://www.w3.org/2000/svg" width="179" height="151" fill="none" viewBox="0 0 179 151"><g fill="#000" clip-path="url(#a)"><path d="M150.623 103.636c-1.765-.411-4.121-.185-5.317 3.199-1.702 4.809-4.777 8.701-7.56 11.874-7.925 9.036-18.265 15.384-30.727 18.867-9.416 2.631-20.613 4.975-32.266 2.401-17.38-3.84-31.525-13.42-42.041-28.478-4.673-6.691-7.354-13.083-8.199-19.548a92.2 92.2 0 0 1 1.483-33.026c.623-2.662 1.456-5.337 2.346-8.193l.402-1.292c.594 1.12 1.104 2.06 1.679 3.002l.146.237a49 49 0 0 0 3.669 5.434c1.88 2.307 4.578 3.003 6.717 1.734 1.69-1.004 3.013-3.399 1.17-6.847-2.085-3.898-4.877-9.008-7.978-13.97-2.301-3.686-5.18-4.683-9.333-3.233-7.003 2.448-13.718 5.077-19.364 7.324a8.7 8.7 0 0 0-3.96 3.146c-.831 1.302-.665 3.45-.036 4.686.849 1.674 2.682 2.139 4.907 1.244 4.362-1.757 8.794-3.412 13.328-5.093a24 24 0 0 1 2.118-.65c-3.94 9.135-6.118 19.438-6.65 31.441-.631 14.241 1.526 24.801 6.992 34.239 9.452 16.316 23.5 28.079 41.753 34.962a56.9 56.9 0 0 0 16.968 3.532c1.476.082 2.977.123 4.462.123a88.5 88.5 0 0 0 25.283-3.829c13.912-4.101 24.996-10.781 33.885-20.433 4.332-4.702 7.081-9.15 8.649-14a14.2 14.2 0 0 0 .813-3.94c.086-3.406-1.767-4.552-3.339-4.913m27.169-33.972c-.92-1.211-2.516-1.732-4.379-1.43-2.031.326-3.946 1.64-5.197 2.683-2.105 1.757-4.118 3.65-6.249 5.65l-.072.067-.466.436c.82-7.01.751-14.094-.203-21.087a63.68 63.68 0 0 0-19.169-37.685C131.583 8.354 118.029 2.273 102.858.708 87.246-.897 71.595 1.71 56.344 8.466c-4.807 2.131-10.356 4.913-15.029 9.39a14 14 0 0 0-2.95 4.492c-.5 1.136.147 3.45 1.392 4.021a4.58 4.58 0 0 0 3.858-.367 13 13 0 0 0 2.068-1.581q.659-.61 1.395-1.121c19.23-12.577 39.745-16.845 60.974-12.692 13.001 2.547 23.612 8.836 31.535 18.692 9.139 11.367 13.371 24.885 12.581 40.18a81 81 0 0 1-1.024 8.374q-.15.956-.297 1.914a90 90 0 0 1-2.389-2.747 855 855 0 0 1-4.988-6.118l-.1-.124a1356 1356 0 0 0-3.57-4.392 13 13 0 0 0-1.75-1.867c-1.716-1.415-3.708-1.516-5.327-.272a3.82 3.82 0 0 0-1.479 2.292c-.194.92-.042 1.88.426 2.694a23.6 23.6 0 0 0 2.241 3.58c4.836 6.23 9.584 12.264 13.592 17.343 1.689 2.14 3.278 3.095 5.153 3.095a8.45 8.45 0 0 0 3.726-1.049 71 71 0 0 0 19.263-14.346 12.2 12.2 0 0 0 2.348-3.364c.828-1.812.754-3.576-.201-4.828"/></g><defs><clipPath id="a"><path fill="#fff" d="M.777 0h178v151h-178z"/></clipPath></defs></svg>
